X: 56
T: Stomp Dance Song (j)
C: Anon.
%%abc-version 2.0
%%abcx-abcm2ps-target-version 5.9.1 (29 Sep 2008)
%%abc-creator hum2abc beta
%%abcx-conversion-date 2020/08/10 20:56:09
%%abc-copyright Electronic Copyright 2000 David Huron
%%abc-edited-by David Huron
%%abcx-initial-encoding-date August 29, 2000
%%humdrum-veritas 1236371454
%%humdrum-veritas-data 3363698695
%%linebreak <none>
%%barnumbers 0
L: 1/4
M: 2/4
Q: 1/4=108
K: Ab clef=bass
F,/ F,/F, | 
A,A, | 
A,F, | 
A,3/F,/ | 
zF,/ z/ | 
F,/ F,/F, | 
A,A, | 
F,F, | 
A,3/F,/ | 
zF,/ z/ ]|:  
F,/ F,/F, [I:setbarnb 12]| 
A,A, | 
C3/B,/ | 
A,/ A,/A, | 
F,/ F,/ F,/ z/ | 
B,B, | 
B,/ C/C | 
A,3/F,/ | 
zF,/ z/ | 
F,/ F,/F, | 
A,A, | 
B,F, | 
A,3/F,/ | 
zF,/ z/ | 
F,/ F,/F, | 
A,A, | 
B,F, | 
A,3/F,/ | 
zF,/ z/ :|]  
F,/ F,/F, [I:setbarnb 31]| 
A,A,3// F,// | 
F,A,3// A,//[M:3/4] | 
A,/> F,/F,F,/ z/[M:2/4] | 
F,/ F,/F, | 
A,A, | 
B,F, | 
A,3/F,/ | 
F,z | 
F,/ F,/F, | 
A,A, | 
B,/< B,/ B,3// B,//[M:3/4] | 
A,/> F,/F,F,/ z/[M:2/4] | 
F,/ F,/F, | 
A,A, | 
B,F, | 
A,3/F,/ | 
F,F,/ z/ |]  


